%
(Bag plate)
(T7 D=0.25 CR=0 - ZMIN=-0.7825 - flat end mill)
N10 G90
N15 G28 G91 Z0
N20 G90

(2D Contour3)
N25 M09
N30 T7
N35 M06
N40 S14000
N45 M04
N50 M08
N55 G00 X34.6 Y19.45
N60 Z0.6
N65 Z0.2894
N70 G01 Z-0.1706 F10
N75 Y19.4497 Z-0.1745
N80 Y19.4488 Z-0.1784
N85 Y19.4473 Z-0.182
N90 Y19.4452 Z-0.1853
N95 Y19.4427 Z-0.1883
N100 Y19.4397 Z-0.1909
N105 Y19.4363 Z-0.1929
N110 Y19.4327 Z-0.1944
N115 Y19.4289 Z-0.1953
N120 Y19.425 Z-0.1956
N125 Y19.4 F60
N130 G03 X34.625 Y19.375 I0.025
N135 G01 X39.375 F110
N140 Y23.375
N145 X32.625
N150 Y19.375
N155 X34.625
N160 G03 X34.65 Y19.4 J0.025 F60
N165 G01 Y19.425
N170 Y19.4289 Z-0.1953
N175 Y19.4327 Z-0.1944
N180 Y19.4363 Z-0.1929
N185 Y19.4397 Z-0.1909
N190 Y19.4427 Z-0.1883
N195 Y19.4452 Z-0.1853
N200 Y19.4473 Z-0.182
N205 Y19.4488 Z-0.1784
N210 Y19.4497 Z-0.1745
N215 Y19.45 Z-0.1706
N220 G00 Z0.2
N225 X34.6
N230 G01 Z0.0937 F10
N235 Z-0.3663
N240 Y19.4497 Z-0.3702
N245 Y19.4488 Z-0.374
N250 Y19.4473 Z-0.3776
N255 Y19.4452 Z-0.3809
N260 Y19.4427 Z-0.3839
N265 Y19.4397 Z-0.3865
N270 Y19.4363 Z-0.3885
N275 Y19.4327 Z-0.39
N280 Y19.4289 Z-0.3909
N285 Y19.425 Z-0.3912
N290 Y19.4 F60
N295 G03 X34.625 Y19.375 I0.025
N300 G01 X39.375 F110
N305 Y23.375
N310 X32.625
N315 Y19.375
N320 X34.625
N325 G03 X34.65 Y19.4 J0.025 F60
N330 G01 Y19.425
N335 Y19.4289 Z-0.3909
N340 Y19.4327 Z-0.39
N345 Y19.4363 Z-0.3885
N350 Y19.4397 Z-0.3865
N355 Y19.4427 Z-0.3839
N360 Y19.4452 Z-0.3809
N365 Y19.4473 Z-0.3776
N370 Y19.4488 Z-0.374
N375 Y19.4497 Z-0.3702
N380 Y19.45 Z-0.3663
N385 G00 Z0.2
N390 X34.6
N395 G01 Z-0.1019 F10
N400 Z-0.5619
N405 Y19.4497 Z-0.5658
N410 Y19.4488 Z-0.5696
N415 Y19.4473 Z-0.5732
N420 Y19.4452 Z-0.5766
N425 Y19.4427 Z-0.5796
N430 Y19.4397 Z-0.5821
N435 Y19.4363 Z-0.5842
N440 Y19.4327 Z-0.5857
N445 Y19.4289 Z-0.5866
N450 Y19.425 Z-0.5869
N455 Y19.4 F60
N460 G03 X34.625 Y19.375 I0.025
N465 G01 X39.375 F110
N470 Y23.375
N475 X32.625
N480 Y19.375
N485 X34.625
N490 G03 X34.65 Y19.4 J0.025 F60
N495 G01 Y19.425
N500 Y19.4289 Z-0.5866
N505 Y19.4327 Z-0.5857
N510 Y19.4363 Z-0.5842
N515 Y19.4397 Z-0.5821
N520 Y19.4427 Z-0.5796
N525 Y19.4452 Z-0.5766
N530 Y19.4473 Z-0.5732
N535 Y19.4488 Z-0.5696
N540 Y19.4497 Z-0.5658
N545 Y19.45 Z-0.5619
N550 G00 Z0.2
N555 X34.6
N560 G01 Z-0.2975 F10
N565 Z-0.7575
N570 Y19.4497 Z-0.7614
N575 Y19.4488 Z-0.7652
N580 Y19.4473 Z-0.7688
N585 Y19.4452 Z-0.7722
N590 Y19.4427 Z-0.7752
N595 Y19.4397 Z-0.7777
N600 Y19.4363 Z-0.7798
N605 Y19.4327 Z-0.7813
N610 Y19.4289 Z-0.7822
N615 Y19.425 Z-0.7825
N620 Y19.4 F60
N625 G03 X34.625 Y19.375 I0.025
N630 G01 X39.375 F110
N635 Y23.375
N640 X32.625
N645 Y19.375
N650 X34.625
N655 G03 X34.65 Y19.4 J0.025 F60
N660 G01 Y19.425
N665 Y19.4289 Z-0.7822
N670 Y19.4327 Z-0.7813
N675 Y19.4363 Z-0.7798
N680 Y19.4397 Z-0.7777
N685 Y19.4427 Z-0.7752
N690 Y19.4452 Z-0.7722
N695 Y19.4473 Z-0.7688
N700 Y19.4488 Z-0.7652
N705 Y19.4497 Z-0.7614
N710 Y19.45 Z-0.7575
N715 G00 Z0.2894
N720 X24.8 Y19.1
N725 G01 Z-0.1706 F10
N730 X24.8003 Z-0.1745
N735 X24.8012 Z-0.1784
N740 X24.8027 Z-0.182
N745 X24.8048 Z-0.1853
N750 X24.8073 Z-0.1883
N755 X24.8103 Z-0.1909
N760 X24.8136 Z-0.1929
N765 X24.8173 Z-0.1944
N770 X24.8211 Z-0.1953
N775 X24.825 Z-0.1956
N780 X24.85 F60
N785 G03 X24.875 Y19.125 J0.025
N790 G01 Y21.25 F110
N795 X20.5
N800 G02 X20.375 Y21.375 J0.125
N805 G01 Y23.375
N810 X13.625
N815 Y19.375
N820 X20.5
N825 G02 X20.625 Y19.25 J-0.125
N830 G01 Y16.625
N835 X24.875
N840 Y19.125
N845 G03 X24.85 Y19.15 I-0.025 F60
N850 G01 X24.825
N855 X24.8211 Z-0.1953
N860 X24.8173 Z-0.1944
N865 X24.8136 Z-0.1929
N870 X24.8103 Z-0.1909
N875 X24.8073 Z-0.1883
N880 X24.8048 Z-0.1853
N885 X24.8027 Z-0.182
N890 X24.8012 Z-0.1784
N895 X24.8003 Z-0.1745
N900 X24.8 Z-0.1706
N905 G00 Z0.2
N910 Y19.1
N915 G01 Z0.0937 F10
N920 Z-0.3663
N925 X24.8003 Z-0.3702
N930 X24.8012 Z-0.374
N935 X24.8027 Z-0.3776
N940 X24.8048 Z-0.3809
N945 X24.8073 Z-0.3839
N950 X24.8103 Z-0.3865
N955 X24.8136 Z-0.3885
N960 X24.8173 Z-0.39
N965 X24.8211 Z-0.3909
N970 X24.825 Z-0.3912
N975 X24.85 F60
N980 G03 X24.875 Y19.125 J0.025
N985 G01 Y21.25 F110
N990 X20.5
N995 G02 X20.375 Y21.375 J0.125
N1000 G01 Y23.375
N1005 X13.625
N1010 Y19.375
N1015 X20.5
N1020 G02 X20.625 Y19.25 J-0.125
N1025 G01 Y16.625
N1030 X24.875
N1035 Y19.125
N1040 G03 X24.85 Y19.15 I-0.025 F60
N1045 G01 X24.825
N1050 X24.8211 Z-0.3909
N1055 X24.8173 Z-0.39
N1060 X24.8136 Z-0.3885
N1065 X24.8103 Z-0.3865
N1070 X24.8073 Z-0.3839
N1075 X24.8048 Z-0.3809
N1080 X24.8027 Z-0.3776
N1085 X24.8012 Z-0.374
N1090 X24.8003 Z-0.3702
N1095 X24.8 Z-0.3663
N1100 G00 Z0.2
N1105 Y19.1
N1110 G01 Z-0.1019 F10
N1115 Z-0.5619
N1120 X24.8003 Z-0.5658
N1125 X24.8012 Z-0.5696
N1130 X24.8027 Z-0.5732
N1135 X24.8048 Z-0.5766
N1140 X24.8073 Z-0.5796
N1145 X24.8103 Z-0.5821
N1150 X24.8136 Z-0.5842
N1155 X24.8173 Z-0.5857
N1160 X24.8211 Z-0.5866
N1165 X24.825 Z-0.5869
N1170 X24.85 F60
N1175 G03 X24.875 Y19.125 J0.025
N1180 G01 Y21.25 F110
N1185 X20.5
N1190 G02 X20.375 Y21.375 J0.125
N1195 G01 Y23.375
N1200 X13.625
N1205 Y19.375
N1210 X20.5
N1215 G02 X20.625 Y19.25 J-0.125
N1220 G01 Y16.625
N1225 X24.875
N1230 Y19.125
N1235 G03 X24.85 Y19.15 I-0.025 F60
N1240 G01 X24.825
N1245 X24.8211 Z-0.5866
N1250 X24.8173 Z-0.5857
N1255 X24.8136 Z-0.5842
N1260 X24.8103 Z-0.5821
N1265 X24.8073 Z-0.5796
N1270 X24.8048 Z-0.5766
N1275 X24.8027 Z-0.5732
N1280 X24.8012 Z-0.5696
N1285 X24.8003 Z-0.5658
N1290 X24.8 Z-0.5619
N1295 G00 Z0.2
N1300 Y19.1
N1305 G01 Z-0.2975 F10
N1310 Z-0.7575
N1315 X24.8003 Z-0.7614
N1320 X24.8012 Z-0.7652
N1325 X24.8027 Z-0.7688
N1330 X24.8048 Z-0.7722
N1335 X24.8073 Z-0.7752
N1340 X24.8103 Z-0.7777
N1345 X24.8136 Z-0.7798
N1350 X24.8173 Z-0.7813
N1355 X24.8211 Z-0.7822
N1360 X24.825 Z-0.7825
N1365 X24.85 F60
N1370 G03 X24.875 Y19.125 J0.025
N1375 G01 Y21.25 F110
N1380 X20.5
N1385 G02 X20.375 Y21.375 J0.125
N1390 G01 Y23.375
N1395 X13.625
N1400 Y19.375
N1405 X20.5
N1410 G02 X20.625 Y19.25 J-0.125
N1415 G01 Y16.625
N1420 X24.875
N1425 Y19.125
N1430 G03 X24.85 Y19.15 I-0.025 F60
N1435 G01 X24.825
N1440 X24.8211 Z-0.7822
N1445 X24.8173 Z-0.7813
N1450 X24.8136 Z-0.7798
N1455 X24.8103 Z-0.7777
N1460 X24.8073 Z-0.7752
N1465 X24.8048 Z-0.7722
N1470 X24.8027 Z-0.7688
N1475 X24.8012 Z-0.7652
N1480 X24.8003 Z-0.7614
N1485 X24.8 Z-0.7575
N1490 G00 Z0.2894
N1495 X71.025 Y0.8
N1500 G01 Z-0.1706 F10
N1505 Y0.8003 Z-0.1745
N1510 Y0.8012 Z-0.1784
N1515 Y0.8027 Z-0.182
N1520 Y0.8048 Z-0.1853
N1525 Y0.8073 Z-0.1883
N1530 Y0.8103 Z-0.1909
N1535 Y0.8137 Z-0.1929
N1540 Y0.8173 Z-0.1944
N1545 Y0.8211 Z-0.1953
N1550 Y0.825 Z-0.1956
N1555 Y0.85 F60
N1560 G03 X71 Y0.875 I-0.025
N1565 G01 X1 F110
N1570 G02 X0.875 Y1 J0.125
N1575 X71.125 I35.125
N1580 X71 Y0.875 I-0.125
N1585 G03 X70.975 Y0.85 J-0.025 F60
N1590 G01 Y0.825
N1595 Y0.8211 Z-0.1953
N1600 Y0.8173 Z-0.1944
N1605 Y0.8137 Z-0.1929
N1610 Y0.8103 Z-0.1909
N1615 Y0.8073 Z-0.1883
N1620 Y0.8048 Z-0.1853
N1625 Y0.8027 Z-0.182
N1630 Y0.8012 Z-0.1784
N1635 Y0.8003 Z-0.1745
N1640 Y0.8 Z-0.1706
N1645 G00 Z0.2
N1650 X71.025
N1655 G01 Z0.0937 F10
N1660 Z-0.3663
N1665 Y0.8003 Z-0.3702
N1670 Y0.8012 Z-0.374
N1675 Y0.8027 Z-0.3776
N1680 Y0.8048 Z-0.3809
N1685 Y0.8073 Z-0.3839
N1690 Y0.8103 Z-0.3865
N1695 Y0.8137 Z-0.3885
N1700 Y0.8173 Z-0.39
N1705 Y0.8211 Z-0.3909
N1710 Y0.825 Z-0.3912
N1715 Y0.85 F60
N1720 G03 X71 Y0.875 I-0.025
N1725 G01 X1 F110
N1730 G02 X0.875 Y1 J0.125
N1735 X71.125 I35.125
N1740 X71 Y0.875 I-0.125
N1745 G03 X70.975 Y0.85 J-0.025 F60
N1750 G01 Y0.825
N1755 Y0.8211 Z-0.3909
N1760 Y0.8173 Z-0.39
N1765 Y0.8137 Z-0.3885
N1770 Y0.8103 Z-0.3865
N1775 Y0.8073 Z-0.3839
N1780 Y0.8048 Z-0.3809
N1785 Y0.8027 Z-0.3776
N1790 Y0.8012 Z-0.374
N1795 Y0.8003 Z-0.3702
N1800 Y0.8 Z-0.3663
N1805 G00 Z0.2
N1810 X71.025
N1815 G01 Z-0.1019 F10
N1820 Z-0.5619
N1825 Y0.8003 Z-0.5658
N1830 Y0.8012 Z-0.5696
N1835 Y0.8027 Z-0.5732
N1840 Y0.8048 Z-0.5766
N1845 Y0.8073 Z-0.5796
N1850 Y0.8103 Z-0.5821
N1855 Y0.8137 Z-0.5842
N1860 Y0.8173 Z-0.5857
N1865 Y0.8211 Z-0.5866
N1870 Y0.825 Z-0.5869
N1875 Y0.85 F60
N1880 G03 X71 Y0.875 I-0.025
N1885 G01 X1 F110
N1890 G02 X0.875 Y1 J0.125
N1895 X71.125 I35.125
N1900 X71 Y0.875 I-0.125
N1905 G03 X70.975 Y0.85 J-0.025 F60
N1910 G01 Y0.825
N1915 Y0.8211 Z-0.5866
N1920 Y0.8173 Z-0.5857
N1925 Y0.8137 Z-0.5842
N1930 Y0.8103 Z-0.5821
N1935 Y0.8073 Z-0.5796
N1940 Y0.8048 Z-0.5766
N1945 Y0.8027 Z-0.5732
N1950 Y0.8012 Z-0.5696
N1955 Y0.8003 Z-0.5658
N1960 Y0.8 Z-0.5619
N1965 G00 Z0.2
N1970 X71.025
N1975 G01 Z-0.2975 F10
N1980 Z-0.7575
N1985 Y0.8003 Z-0.7614
N1990 Y0.8012 Z-0.7652
N1995 Y0.8027 Z-0.7688
N2000 Y0.8048 Z-0.7722
N2005 Y0.8073 Z-0.7752
N2010 Y0.8103 Z-0.7777
N2015 Y0.8137 Z-0.7798
N2020 Y0.8173 Z-0.7813
N2025 Y0.8211 Z-0.7822
N2030 Y0.825 Z-0.7825
N2035 Y0.85 F60
N2040 G03 X71 Y0.875 I-0.025
N2045 G01 X1 F110
N2050 G02 X0.875 Y1 J0.125
N2055 X71.125 I35.125
N2060 X71 Y0.875 I-0.125
N2065 G03 X70.975 Y0.85 J-0.025 F60
N2070 G01 Y0.825
N2075 Y0.8211 Z-0.7822
N2080 Y0.8173 Z-0.7813
N2085 Y0.8137 Z-0.7798
N2090 Y0.8103 Z-0.7777
N2095 Y0.8073 Z-0.7752
N2100 Y0.8048 Z-0.7722
N2105 Y0.8027 Z-0.7688
N2110 Y0.8012 Z-0.7652
N2115 Y0.8003 Z-0.7614
N2120 Y0.8 Z-0.7575
N2125 G00 Z0.2894
N2130 X53.6 Y19.45
N2135 G01 Z-0.1706 F10
N2140 Y19.4497 Z-0.1745
N2145 Y19.4488 Z-0.1784
N2150 Y19.4473 Z-0.182
N2155 Y19.4452 Z-0.1853
N2160 Y19.4427 Z-0.1883
N2165 Y19.4397 Z-0.1909
N2170 Y19.4363 Z-0.1929
N2175 Y19.4327 Z-0.1944
N2180 Y19.4289 Z-0.1953
N2185 Y19.425 Z-0.1956
N2190 Y19.4 F60
N2195 G03 X53.625 Y19.375 I0.025
N2200 G01 X58.375 F110
N2205 Y23.375
N2210 X51.625
N2215 Y21.375
N2220 G02 X51.5 Y21.25 I-0.125
N2225 G01 X47.125
N2230 Y16.625
N2235 X51.375
N2240 Y19.25
N2245 G02 X51.5 Y19.375 I0.125
N2250 G01 X53.625
N2255 G03 X53.65 Y19.4 J0.025 F60
N2260 G01 Y19.425
N2265 Y19.4289 Z-0.1953
N2270 Y19.4327 Z-0.1944
N2275 Y19.4363 Z-0.1929
N2280 Y19.4397 Z-0.1909
N2285 Y19.4427 Z-0.1883
N2290 Y19.4452 Z-0.1853
N2295 Y19.4473 Z-0.182
N2300 Y19.4488 Z-0.1784
N2305 Y19.4497 Z-0.1745
N2310 Y19.45 Z-0.1706
N2315 G00 Z0.2
N2320 X53.6
N2325 G01 Z0.0937 F10
N2330 Z-0.3663
N2335 Y19.4497 Z-0.3702
N2340 Y19.4488 Z-0.374
N2345 Y19.4473 Z-0.3776
N2350 Y19.4452 Z-0.3809
N2355 Y19.4427 Z-0.3839
N2360 Y19.4397 Z-0.3865
N2365 Y19.4363 Z-0.3885
N2370 Y19.4327 Z-0.39
N2375 Y19.4289 Z-0.3909
N2380 Y19.425 Z-0.3912
N2385 Y19.4 F60
N2390 G03 X53.625 Y19.375 I0.025
N2395 G01 X58.375 F110
N2400 Y23.375
N2405 X51.625
N2410 Y21.375
N2415 G02 X51.5 Y21.25 I-0.125
N2420 G01 X47.125
N2425 Y16.625
N2430 X51.375
N2435 Y19.25
N2440 G02 X51.5 Y19.375 I0.125
N2445 G01 X53.625
N2450 G03 X53.65 Y19.4 J0.025 F60
N2455 G01 Y19.425
N2460 Y19.4289 Z-0.3909
N2465 Y19.4327 Z-0.39
N2470 Y19.4363 Z-0.3885
N2475 Y19.4397 Z-0.3865
N2480 Y19.4427 Z-0.3839
N2485 Y19.4452 Z-0.3809
N2490 Y19.4473 Z-0.3776
N2495 Y19.4488 Z-0.374
N2500 Y19.4497 Z-0.3702
N2505 Y19.45 Z-0.3663
N2510 G00 Z0.2
N2515 X53.6
N2520 G01 Z-0.1019 F10
N2525 Z-0.5619
N2530 Y19.4497 Z-0.5658
N2535 Y19.4488 Z-0.5696
N2540 Y19.4473 Z-0.5732
N2545 Y19.4452 Z-0.5766
N2550 Y19.4427 Z-0.5796
N2555 Y19.4397 Z-0.5821
N2560 Y19.4363 Z-0.5842
N2565 Y19.4327 Z-0.5857
N2570 Y19.4289 Z-0.5866
N2575 Y19.425 Z-0.5869
N2580 Y19.4 F60
N2585 G03 X53.625 Y19.375 I0.025
N2590 G01 X58.375 F110
N2595 Y23.375
N2600 X51.625
N2605 Y21.375
N2610 G02 X51.5 Y21.25 I-0.125
N2615 G01 X47.125
N2620 Y16.625
N2625 X51.375
N2630 Y19.25
N2635 G02 X51.5 Y19.375 I0.125
N2640 G01 X53.625
N2645 G03 X53.65 Y19.4 J0.025 F60
N2650 G01 Y19.425
N2655 Y19.4289 Z-0.5866
N2660 Y19.4327 Z-0.5857
N2665 Y19.4363 Z-0.5842
N2670 Y19.4397 Z-0.5821
N2675 Y19.4427 Z-0.5796
N2680 Y19.4452 Z-0.5766
N2685 Y19.4473 Z-0.5732
N2690 Y19.4488 Z-0.5696
N2695 Y19.4497 Z-0.5658
N2700 Y19.45 Z-0.5619
N2705 G00 Z0.2
N2710 X53.6
N2715 G01 Z-0.2975 F10
N2720 Z-0.7575
N2725 Y19.4497 Z-0.7614
N2730 Y19.4488 Z-0.7652
N2735 Y19.4473 Z-0.7688
N2740 Y19.4452 Z-0.7722
N2745 Y19.4427 Z-0.7752
N2750 Y19.4397 Z-0.7777
N2755 Y19.4363 Z-0.7798
N2760 Y19.4327 Z-0.7813
N2765 Y19.4289 Z-0.7822
N2770 Y19.425 Z-0.7825
N2775 Y19.4 F60
N2780 G03 X53.625 Y19.375 I0.025
N2785 G01 X58.375 F110
N2790 Y23.375
N2795 X51.625
N2800 Y21.375
N2805 G02 X51.5 Y21.25 I-0.125
N2810 G01 X47.125
N2815 Y16.625
N2820 X51.375
N2825 Y19.25
N2830 G02 X51.5 Y19.375 I0.125
N2835 G01 X53.625
N2840 G03 X53.65 Y19.4 J0.025 F60
N2845 G01 Y19.425
N2850 Y19.4289 Z-0.7822
N2855 Y19.4327 Z-0.7813
N2860 Y19.4363 Z-0.7798
N2865 Y19.4397 Z-0.7777
N2870 Y19.4427 Z-0.7752
N2875 Y19.4452 Z-0.7722
N2880 Y19.4473 Z-0.7688
N2885 Y19.4488 Z-0.7652
N2890 Y19.4497 Z-0.7614
N2895 Y19.45 Z-0.7575
N2900 G00 Z0.6
N2905 M09
N2910 G28 G91 Z0
N2915 G90
N2920 M30
%
